Flat-Remix-Dark/apps/scalable/digitallyimported.svg

<svg xmlns="http://www.w3.org/2000/svg" xmlns:xlink="http://www.w3.org/1999/xlink" width="384pt" height="384pt" version="1.1" viewBox="0 0 384 384">
 <defs>
  <filter id="alpha" width="100%" height="100%" x="0%" y="0%" filterUnits="objectBoundingBox">
   <feColorMatrix in="SourceGraphic" type="matrix" values="0 0 0 0 1 0 0 0 0 1 0 0 0 0 1 0 0 0 1 0"/>
  </filter>
  <mask id="mask2">
   <g filter="url(#alpha)">
    <rect width="384" height="384" x="0" y="0" style="fill:rgb(0%,0%,0%);fill-opacity:0.2"/>
   </g>
  </mask>
  <clipPath id="clip3">
   <rect width="384" height="384" x="0" y="0"/>
  </clipPath>
  <g id="surface11" clip-path="url(#clip3)">
   <path style="fill:rgb(100%,100%,100%)" d="M 40.804688 42 C 31.496094 42 24 49.429688 24 58.664062 L 24 64.664062 C 24 55.429688 31.496094 48 40.804688 48 L 343.195312 48 C 352.496094 48 360 55.429688 360 64.664062 L 360 58.664062 C 360 49.429688 352.496094 42 343.195312 42 Z M 40.804688 42"/>
  </g>
 </defs>
 <g transform="matrix(1.0044643,0,0,1.0044643,-0.8571456,-0.8571456)">
  <path style="fill:#357af0" d="M 359.99609,325.33203 V 58.671875 c 0,-9.234375 -7.48828,-16.667969 -16.80078,-16.667969 H 40.800781 C 31.492188,42.003906 24,49.4375 24,58.671875 V 325.33203 C 24,334.57031 31.492188,342 40.800781,342 H 343.19531 c 9.3086,0 16.80078,-7.43359 16.80078,-16.66797 z m 0,0"/>
  <path d="M 60.000008,121.50391 V 157.5039 H 188.56641 c 9.49218,0 15.41796,5.09765 15.41796,13.10156 v 57.78906 c 0,8.00391 -5.92578,12.97266 -15.42968,13.10547 H 96.152358 V 172.55077 H 59.988288 V 277.5039 H 214.26954 c 14.24218,0 25.71483,-11.59375 25.71483,-26.00391 v -104 c 0,-14.39452 -11.47265,-25.99218 -25.71483,-25.99218 H 95.820318 Z m 0,0"/>
  <path style="fill:#ffffff" d="m 60,114.00391 v 36 h 128.56641 c 9.49218,0 15.41796,5.09765 15.41796,13.10156 v 57.78906 c 0,8.00391 -5.92578,12.97266 -15.42968,13.10547 H 96.152344 V 165.05078 H 59.988281 V 270.00391 H 214.26953 c 14.24219,0 25.71484,-11.59375 25.71484,-26.00391 V 140 c 0,-14.39453 -11.47265,-25.99219 -25.71484,-25.99219 H 95.820312 Z m 0,0"/>
  <path d="m 275.99609,121.50391 v 36 h 36 v -36 z m 0,48 v 107.99608 h 36 V 169.50391 Z m 0,0"/>
  <path style="fill:#ffffff" d="m 275.99609,114.00391 v 36 h 36 v -36 z m 0,48 V 270 h 36 V 162.00391 Z m 0,0"/>
  <use width="100%" height="100%" x="0" y="0" mask="url(#mask2)" xlink:href="#surface11"/>
  <path d="m 32,423.77539 v 10 C 32,446.0931 41.988933,456 54.400391,456 H 457.59375 c 12.41145,0 22.4004,-9.9121 22.40039,-22.22461 v -10 C 479.99415,436.0879 470.0052,446 457.59375,446 H 54.400391 C 41.988933,446 32,436.0931 32,423.77539 Z" transform="scale(0.75)" style="opacity:0.3"/>
 </g>
</svg>

<svg xmlns="http://www.w3.org/2000/svg" xmlns:xlink="http://www.w3.org/1999/xlink" width="384pt" height="384pt" version="1.1" viewBox="0 0 384 384">
 <defs>
  <filter id="alpha" width="100%" height="100%" x="0%" y="0%" filterUnits="objectBoundingBox">
   <feColorMatrix in="SourceGraphic" type="matrix" values="0 0 0 0 1 0 0 0 0 1 0 0 0 0 1 0 0 0 1 0"/>
  </filter>
  <mask id="mask0">
   <g filter="url(#alpha)">
    <rect width="384" height="384" x="0" y="0" style="fill:rgb(0%,0%,0%);fill-opacity:0.2"/>
   </g>
  </mask>
  <clipPath id="clip1">
   <rect width="384" height="384" x="0" y="0"/>
  </clipPath>
  <g id="surface5" clip-path="url(#clip1)">
   <path style="fill:rgb(0%,0%,0%)" d="M 24 319.332031 L 24 331.332031 C 24 340.570312 31.496094 348 40.804688 348 L 343.199219 348 C 352.5 348 360 340.570312 360 331.332031 L 360 319.332031 C 360 328.574219 352.5 336 343.199219 336 L 40.804688 336 C 31.503906 336 24.003906 328.574219 24.003906 319.332031 Z M 24 319.332031"/>
  </g>
  <mask id="mask1">
   <g filter="url(#alpha)">
    <rect width="384" height="384" x="0" y="0" style="fill:rgb(0%,0%,0%);fill-opacity:0.2"/>
   </g>
  </mask>
  <clipPath id="clip2">
   <rect width="384" height="384" x="0" y="0"/>
  </clipPath>
  <g id="surface8" clip-path="url(#clip2)">
   <path style="fill:rgb(0%,0%,0%)" d="M 60 120 L 60 156 L 188.566406 156 C 198.058594 156 203.984375 161.101562 203.984375 169.105469 L 203.984375 226.894531 C 203.984375 234.898438 198.058594 239.863281 188.554688 239.996094 L 96.152344 239.996094 L 96.152344 171.050781 L 59.988281 171.050781 L 59.988281 276 L 214.269531 276 C 228.511719 276 239.984375 264.40625 239.984375 249.996094 L 239.984375 145.996094 C 239.984375 131.601562 228.511719 120.003906 214.269531 120.003906 L 95.820312 120.003906 Z M 60 120"/>
   <path style="fill:rgb(0%,0%,0%)" d="M 275.996094 120 L 275.996094 156 L 311.996094 156 L 311.996094 120 Z M 275.996094 168 L 275.996094 276 L 311.996094 276 L 311.996094 168 Z M 275.996094 168"/>
  </g>
  <mask id="mask2">
   <g filter="url(#alpha)">
    <rect width="384" height="384" x="0" y="0" style="fill:rgb(0%,0%,0%);fill-opacity:0.2"/>
   </g>
  </mask>
  <clipPath id="clip3">
   <rect width="384" height="384" x="0" y="0"/>
  </clipPath>
  <g id="surface11" clip-path="url(#clip3)">
   <path style="fill:rgb(100%,100%,100%)" d="M 40.804688 42 C 31.496094 42 24 49.429688 24 58.664062 L 24 64.664062 C 24 55.429688 31.496094 48 40.804688 48 L 343.195312 48 C 352.496094 48 360 55.429688 360 64.664062 L 360 58.664062 C 360 49.429688 352.496094 42 343.195312 42 Z M 40.804688 42"/>
  </g>
 </defs>
 <g>
  <use mask="url(#mask0)" xlink:href="#surface5"/>
  <path style="fill:rgb(16.078431%,50.196078%,72.54902%)" d="M 359.996094 325.332031 L 359.996094 58.671875 C 359.996094 49.4375 352.507812 42.003906 343.195312 42.003906 L 40.800781 42.003906 C 31.492188 42.003906 24 49.4375 24 58.671875 L 24 325.332031 C 24 334.570312 31.492188 342 40.800781 342 L 343.195312 342 C 352.503906 342 359.996094 334.566406 359.996094 325.332031 Z M 359.996094 325.332031"/>
  <use mask="url(#mask1)" xlink:href="#surface8"/>
  <path style="fill:rgb(100%,100%,100%)" d="M 60 114.003906 L 60 150.003906 L 188.566406 150.003906 C 198.058594 150.003906 203.984375 155.101562 203.984375 163.105469 L 203.984375 220.894531 C 203.984375 228.898438 198.058594 233.867188 188.554688 234 L 96.152344 234 L 96.152344 165.050781 L 59.988281 165.050781 L 59.988281 270.003906 L 214.269531 270.003906 C 228.511719 270.003906 239.984375 258.410156 239.984375 244 L 239.984375 140 C 239.984375 125.605469 228.511719 114.007812 214.269531 114.007812 L 95.820312 114.007812 Z M 60 114.003906"/>
  <path style="fill:rgb(100%,100%,100%)" d="M 275.996094 114.003906 L 275.996094 150.003906 L 311.996094 150.003906 L 311.996094 114.003906 Z M 275.996094 162.003906 L 275.996094 270 L 311.996094 270 L 311.996094 162.003906 Z M 275.996094 162.003906"/>
  <use mask="url(#mask2)" xlink:href="#surface11"/>
 </g>
</svg>
